X:1
T:Stutzi-Polka  GC
T:Hanny Christen. Bd.VI  Fribourg, Welschland, Wallis, Bern I. S.267 (pk01011) orig. G,C-Dur
T:Walliser (Volks-)T\"anze. S.234-276
%%MIDI program 21
R:polka
M:2/4
L:1/16
K:G %%MIDI gchordon
"G"Bddd eddd | Bddd b4 | "D7"baa2 ac'ba | "G"gbbgd4 | Bddd eddd | BdddB4 | 
"D7"baa2 ac'ba |1 "G"g2g2 g2z2 :|2 "G"g2g2 g2gc' |: [K:C] "C"a2g2 e2c2 | "G7"d2G2 G2gb | a2g2 f2de | 
"C"d2c2 c2gc' | a2g2 e2c2 | "G7"d2G2 G2gb | a2g2 gfed |1 "C"c2e2 c2bc' :|2 "C"c2e2 c2z2 |] 
W:Anmerkung H.C.: Rittener Toni, Simplon Dorf, 22. Nov. 1955, Theod\"ul Rittener Fiesch 1899

